src/symbolic/status/revolt-status-blink-symbolic.svg

<svg xmlns="http://www.w3.org/2000/svg" width="16" height="16" version="1">
 <path style="fill:#444444" d="M 7.9941406 0 A 8 8 0 0 0 4.8515625 0.64453125 A 3 3 0 0 1 5.9628906 2.5410156 A 1 1 0 0 1 5.9960938 2.8808594 A 3 3 0 0 1 5.9960938 2.8847656 A 3 3 0 0 1 6 3 A 3 3 0 0 1 3 6 A 3 3 0 0 1 2.8886719 5.9941406 A 1 1 0 0 1 2.5214844 5.9570312 A 3 3 0 0 1 0.64648438 4.859375 A 8 8 0 0 0 -0.005859375 8 A 8 8 0 0 0 7.9941406 16 A 8 8 0 0 0 13.625 13.673828 C 13.017692 13.43251 12.443469 13.163045 11.927734 12.830078 A 1 1 0 0 1 11.5 14.0625 A 1 1 0 0 1 10.134766 13.695312 A 1 1 0 0 1 10.5 12.330078 A 1 1 0 0 1 10.976562 12.197266 A 1 1 0 0 1 11.134766 12.207031 C 10.584524 11.684614 10.170796 10.982539 10.050781 10.1875 A 3 3 0 0 1 8 11 A 3 3 0 0 1 5 8 A 3 3 0 0 1 8 5 A 3 3 0 0 1 11 8 A 3 3 0 0 1 10.998047 8.0410156 C 11.128083 8.0111437 11.248719 7.9969715 11.339844 8 C 11.527474 8.00624 11.647935 8.0371023 11.777344 8.0664062 A 1.0001 1.0001 0 0 1 11.806641 8.0722656 L 13.085938 8.4023438 A 1 1 0 0 1 13 8 A 1 1 0 0 1 14 7 A 1 1 0 0 1 15 8 A 1 1 0 0 1 14.605469 8.7949219 L 15.904297 9.1308594 A 8 8 0 0 0 15.994141 8 A 8 8 0 0 0 7.9941406 0 z M 8 1 A 1 1 0 0 1 9 2 A 1 1 0 0 1 8 3 A 1 1 0 0 1 7 2 A 1 1 0 0 1 8 1 z M 10.953125 1.8046875 A 1 1 0 0 1 11.5 1.9375 A 1 1 0 0 1 11.865234 3.3046875 A 1 1 0 0 1 10.5 3.6699219 A 1 1 0 0 1 10.134766 2.3046875 A 1 1 0 0 1 10.953125 1.8046875 z M 13.171875 4 A 1 1 0 0 1 14.0625 4.5 A 1 1 0 0 1 13.695312 5.8652344 A 1 1 0 0 1 12.330078 5.5 A 1 1 0 0 1 12.695312 4.1347656 A 1 1 0 0 1 13.171875 4 z M 2 7 A 1 1 0 0 1 3 8 A 1 1 0 0 1 2 9 A 1 1 0 0 1 1 8 A 1 1 0 0 1 2 7 z M 2.7792969 10 A 1 1 0 0 1 3.6699219 10.5 A 1 1 0 0 1 3.3046875 11.865234 A 1 1 0 0 1 1.9375 11.5 A 1 1 0 0 1 2.3046875 10.134766 A 1 1 0 0 1 2.7792969 10 z M 4.953125 12.197266 A 1 1 0 0 1 5.5 12.330078 A 1 1 0 0 1 5.8652344 13.695312 A 1 1 0 0 1 4.5 14.0625 A 1 1 0 0 1 4.1347656 12.695312 A 1 1 0 0 1 4.953125 12.197266 z M 8 13 A 1 1 0 0 1 9 14 A 1 1 0 0 1 8 15 A 1 1 0 0 1 7 14 A 1 1 0 0 1 8 13 z"/>
 <path style="fill:#5294ef;fill-opacity:1" class="warning" d="M 3,1 A 2,2 0 0 0 1,3 2,2 0 0 0 3,5 2,2 0 0 0 5,3 2,2 0 0 0 3,1 Z"/>
 <path style="fill:#444444" d="m 11.306641,9 c -0.188731,-0.00627 -0.213824,0.097137 -0.269532,0.3710938 -0.280349,1.8036212 1.354249,2.8043272 3.501953,3.5839842 0.256195,0.09097 0.278088,0.04569 0.433594,-0.148437 0.284128,-0.367873 0.452788,-0.75585 0.591797,-1.16211 0.124322,-0.363338 0.224823,-0.740993 0.363281,-1.128906 0.139074,-0.328745 0.08912,-0.321914 -0.259765,-0.412109 L 11.556641,9.0410156 C 11.449895,9.0168436 11.369552,9.0020911 11.306641,9 Z"/>
</svg>

<svg xmlns="http://www.w3.org/2000/svg" width="16" height="16" version="1"><path d="M7.994 0a8 8 0 0 0-3.142.645 3 3 0 0 1 1.11 1.896 1 1 0 0 1 .034.34 3 3 0 0 1 0 .004A3 3 0 0 1 6 3a3 3 0 0 1-3 3 3 3 0 0 1-.111-.006 1 1 0 0 1-.368-.037A3 3 0 0 1 .646 4.859 8 8 0 0 0-.006 8a8 8 0 0 0 8 8 8 8 0 0 0 5.631-2.326c-.607-.241-1.182-.511-1.697-.844a1 1 0 0 1-.428 1.232 1 1 0 0 1-1.365-.367 1 1 0 0 1 .365-1.365 1 1 0 0 1 .477-.133 1 1 0 0 1 .158.01c-.55-.522-.964-1.224-1.084-2.02A3 3 0 0 1 8 11a3 3 0 0 1-3-3 3 3 0 0 1 3-3 3 3 0 0 1 3 3 3 3 0 0 1-.002.041c.13-.03.25-.044.342-.041.187.006.308.037.437.066a1 1 0 0 1 .03.006l1.279.33A1 1 0 0 1 13 8a1 1 0 0 1 1-1 1 1 0 0 1 1 1 1 1 0 0 1-.395.795l1.3.336A8 8 0 0 0 15.994 8a8 8 0 0 0-8-8zM8 1a1 1 0 0 1 1 1 1 1 0 0 1-1 1 1 1 0 0 1-1-1 1 1 0 0 1 1-1zm2.953.805a1 1 0 0 1 .547.133 1 1 0 0 1 .365 1.367 1 1 0 0 1-1.365.365 1 1 0 0 1-.365-1.365 1 1 0 0 1 .818-.5zM13.172 4a1 1 0 0 1 .89.5 1 1 0 0 1-.367 1.365A1 1 0 0 1 12.33 5.5a1 1 0 0 1 .365-1.365A1 1 0 0 1 13.172 4zM2 7a1 1 0 0 1 1 1 1 1 0 0 1-1 1 1 1 0 0 1-1-1 1 1 0 0 1 1-1zm.78 3a1 1 0 0 1 .89.5 1 1 0 0 1-.365 1.365 1 1 0 0 1-1.368-.365 1 1 0 0 1 .368-1.365A1 1 0 0 1 2.779 10zm2.173 2.197a1 1 0 0 1 .547.133 1 1 0 0 1 .365 1.365 1 1 0 0 1-1.365.367 1 1 0 0 1-.365-1.367 1 1 0 0 1 .818-.498zM8 13a1 1 0 0 1 1 1 1 1 0 0 1-1 1 1 1 0 0 1-1-1 1 1 0 0 1 1-1z" fill="#5d656b"/><path class="warning" d="M3 1a2 2 0 0 0-2 2 2 2 0 0 0 2 2 2 2 0 0 0 2-2 2 2 0 0 0-2-2z" fill="#5294ef"/><path d="M11.307 9c-.19-.006-.214.097-.27.371-.28 1.804 1.354 2.804 3.502 3.584.256.091.278.046.434-.148.284-.368.452-.756.591-1.162.125-.364.225-.741.364-1.13.139-.328.089-.321-.26-.411L11.557 9.04a1.431 1.431 0 0 0-.25-.041z" fill="#5d656b"/></svg>
